symbols/web/my_location/materialsymbolsrounded/my_location_wght100grad200fill1_20px.svg

<svg xmlns="http://www.w3.org/2000/svg" height="20" width="20"><path d="M10 18.354q-.229 0-.417-.187-.187-.188-.187-.417v-.792q-2.604-.25-4.375-2.01Q3.25 13.188 3 10.583h-.792q-.229 0-.416-.187-.188-.188-.188-.417 0-.229.188-.417.187-.187.416-.187H3q.25-2.604 2.021-4.385 1.771-1.782 4.375-2.032v-.791q0-.229.187-.417.188-.188.417-.188.229 0 .417.188.187.188.187.417v.791q2.604.25 4.375 2.032Q16.75 6.771 17 9.375h.792q.229 0 .416.187.188.188.188.417 0 .229-.188.417-.187.187-.416.187H17q-.25 2.605-2.021 4.365-1.771 1.76-4.375 2.01v.792q0 .229-.187.417-.188.187-.417.187Zm.021-2.604q2.458 0 4.125-1.667 1.666-1.666 1.666-4.125 0-2.458-1.666-4.125-1.667-1.666-4.125-1.666-2.459 0-4.125 1.666Q4.229 7.5 4.229 9.958q0 2.459 1.667 4.125 1.666 1.667 4.125 1.667Zm0-2.896q-1.188 0-2.042-.854-.854-.854-.854-2.042 0-1.187.854-2.041.854-.855 2.042-.855 1.187 0 2.041.855.855.854.855 2.041 0 1.188-.855 2.042-.854.854-2.041.854Z"/></svg>

<svg xmlns="http://www.w3.org/2000/svg" height="20" width="20"><path d="M10 18.354Q9.771 18.354 9.583 18.167Q9.396 17.979 9.396 17.75V16.938Q6.792 16.708 5.021 14.948Q3.25 13.188 3.021 10.583H2.208Q1.979 10.583 1.792 10.396Q1.604 10.208 1.604 9.979Q1.604 9.75 1.792 9.562Q1.979 9.375 2.208 9.375H3.021Q3.25 6.771 5.021 4.99Q6.792 3.208 9.396 2.979V2.167Q9.396 1.938 9.583 1.75Q9.771 1.562 10 1.562Q10.229 1.562 10.417 1.75Q10.604 1.938 10.604 2.167V2.979Q13.208 3.208 14.979 4.99Q16.75 6.771 16.979 9.375H17.792Q18.021 9.375 18.208 9.562Q18.396 9.75 18.396 9.979Q18.396 10.208 18.208 10.396Q18.021 10.583 17.792 10.583H16.979Q16.75 13.188 14.979 14.948Q13.208 16.708 10.604 16.938V17.75Q10.604 17.979 10.417 18.167Q10.229 18.354 10 18.354ZM10.021 15.75Q12.479 15.75 14.146 14.083Q15.812 12.417 15.812 9.958Q15.812 7.5 14.146 5.833Q12.479 4.167 10.021 4.167Q7.562 4.167 5.896 5.833Q4.229 7.5 4.229 9.958Q4.229 12.417 5.896 14.083Q7.562 15.75 10.021 15.75ZM10.021 12.854Q8.833 12.854 7.979 12Q7.125 11.146 7.125 9.958Q7.125 8.771 7.979 7.917Q8.833 7.062 10.021 7.062Q11.208 7.062 12.062 7.917Q12.917 8.771 12.917 9.958Q12.917 11.146 12.062 12Q11.208 12.854 10.021 12.854ZM10.021 11.646Q10.688 11.646 11.198 11.135Q11.708 10.625 11.708 9.958Q11.708 9.292 11.198 8.781Q10.688 8.271 10.021 8.271Q9.354 8.271 8.844 8.781Q8.333 9.292 8.333 9.958Q8.333 10.625 8.844 11.135Q9.354 11.646 10.021 11.646ZM10.021 11.646Q9.354 11.646 8.844 11.135Q8.333 10.625 8.333 9.958Q8.333 9.292 8.844 8.781Q9.354 8.271 10.021 8.271Q10.688 8.271 11.198 8.781Q11.708 9.292 11.708 9.958Q11.708 10.625 11.198 11.135Q10.688 11.646 10.021 11.646Z"/></svg>
